!!!!SEGMENT: pl-wtm--670-sp-3678--001-018_schulz-johann-abraham-peter--piosenki-dla-mlodocianego-wieku-piotr-maszynski-18-do-fijolka.krn
!!!cenid: 18xx:4770
!!!COM: Schulz, Johann Abraham Peter
!!!COM-rismID: pe125498
!!!CDT: 1747/03/31-1800/06/10
!!!CNT: German
!!!GTL: Piosenki dla młodocianego wieku (Piotr Maszyński)
!!!OTL: 18. Do Fijołka
!!!OMV: 018
!!!PDT: 1871
!!!AGN: Secular; Song; Children
!!!YEC: Copyright 2022 Narodowy Instytut Fryderyka Chopina (https://polishscores.org)
!!!YEM: License CC-BY-4.0 (https://creativecommons.org/licenses/by/4.0)
!!!SMS-siglum: PL-Wtm
!!!SMS-shelfmark: 670 śp 3678
!!!SMS-variant:
!!!SMS-altvar:
!!!SMS-shelfwork: 001-018 G
!!!NIFC-rismSourceID: 1001185478
!!!NIFC-rismChildID: 1001185478
!!!NIFC-islandoraID: pl-wtm:57754
!!!URL-pdf-islandora: https://repozytorium.nifc.pl/islandora/object/pl-wtm%3A57754/datastream/PDF/view
!!!URL-scan: https://polish.musicsources.pl/pl/lokalizacje/galeria/druki-muzyczne/19483/13 @EN{Scan on Polish Music Sources Website} @PL{Skany w portalu Dziedzictwo Muzyki Polskiej w otwartym dostępie}
!!!IIIF:
!!!ONB-nifc:
!!!AIN: 1 canto 1 piano
!!!key: G
**kern	**fing	**kern	**fing	**dynam	**kern	**text	**dynam
*part2	*	*part2	*	*part2	*part1	*part1	*part1
*staff3	*	*staff2	*	*staff2/3	*staff1	*staff1	*
*IGacmp	*	*IGacmp	*	*	*	*	*
*ICklav	*	*ICklav	*	*	*ICvox	*	*
*Ipiano	*	*Ipiano	*	*	*Icanto	*	*
*I"Fortepian.	*	*I"Fortepian.	*	*	*I"Śpiew.	*	*
*I'	*	*I'	*	*	*I'	*	*
*clefF4	*	*clefG2	*	*	*clefG2	*	*
*k[f#]	*	*k[f#]	*	*	*k[f#]	*	*
*G:	*	*G:	*	*	*G:	*	*
*M2/4	*	*M2/4	*	*	*M2/4	*	*
=1	=1	=1	=1	=1	=1	=1	=1
*	*	*	*	*	*^	*	*
!!LO:TX:a:B:t=Moderato.
4GG/	.	(8.ddL 8.b\	3 5	p	8.dd/	8.b\	Fijoł-	.
.	.	16ccJk 16a\)	.	.	16cc/	16a\	-ku	.
4G\	.	(8bL 8g'/	.	.	8b/	8g\	wy-	.
.	.	8bJ 8g'/)	.	.	8b/	8g\	-chu-	.
=2	=2	=2	=2	=2	=2	=2	=2	=2
4D\	.	4cc 4a\	.	.	4cc/	4a\	-cha-	.
4r	.	4a 4d/	1 4	.	4a/	4d\	-ny	.
=3	=3	=3	=3	=3	=3	=3	=3	=3
8GG/	.	(8bL 8g'/	.	.	8b/	8g\	kwit-	.
8r	.	8gJ 8B'/)	1 4	.	8g/	8B\	-nij	.
8D\	.	(8aL 8c'/	.	.	8a/	8c\	pię-	.
8r	.	8f#J 8d'/)	.	.	8f#/	8d\	-knie	.
=4	=4	=4	=4	=4	=4	=4	=4	=4
8r	.	4g 4B/	.	.	4g/	4B\	mi,	.
(8G'/L	.	.	.	.	.	.	.	.
8GG'/J)	.	4r	.	.	4r	4ryy	.	.
8r	.	.	.	.	.	.	.	.
!!LO:LB:g=original
=5	=5	=5	=5	=5	=5	=5	=5	=5
4DD/	.	(8.aL 8.d/	1 3	.	8.a/	8.d\	bo	.
.	.	16bJk 16g/)	2 4	.	16b/	16g\	masz	.
4D\	.	(8ccL 8a'/	.	.	8cc/	8a\	być	.
.	.	8bJ 8g'/)	.	.	8b/	8g\	zer-	.
=6	=6	=6	=6	=6	=6	=6	=6	=6
4DD/	.	(4b 4g/	.	.	4b/	4g\	-wa-	.
4D\	.	4a 4f#/)	.	.	4a/	4f#\	-ny	.
=7	=7	=7	=7	=7	=7	=7	=7	=7
!	!	!	!	!	!	!	!	!LO:HP:a
8GG\L	.	(8bL 8g'/	1 3	<	8b/	8g\	już	<
(16G\L	.	8bJ 8g'/)	.	.	8b/	8g\	za	.
16F#\JJ	.	.	.	.	.	.	.	.
8E/L	.	(8cc#XL 8g'/	.	.	8cc#X/	8g\	pa-	.
8AA/J)	.	8cc#J 8g'/)	.	[[	8cc#/	8g\	-rę	.
.	.	.	.	.	.	.	.	[
=8	=8	=8	=8	=8	=8	=8	=8	=8
*	*below	*	*	*	*	*	*	*
!	!	!	!	!	!	!	!	!LO:HP:a
(8D'/L	1	4dd 4f#/	.	>	4dd/	4f#\	dni.	>]]
8AA'/	.	.	.	.	.	.	.	.
8DD'/J)	.	4r	.	.	4r	4ryy	.	.
.	.	.	.	]	.	.	.	.
8r	.	.	.	.	.	.	.	.
!!LO:LB:g=original
=9	=9	=9	=9	=9	=9	=9	=9	=9
!	!	!LO:TX:b:i:t=dolce	!	!	!LO:TX:a:i:t=dolce	!	!	!
4D\	.	(8.aL 8.f#/	.	.	8.a/	8.f#\	W i-	.
.	.	16gJk 16e/)	.	.	16g/	16e\	-mie-	.
4r	.	(8f#L 8d'/	.	.	8f#/	8d\	-ni-	.
.	.	8aJ 8f#'/)	2 4	.	8a/	8f#\	-ny	.
=10	=10	=10	=10	=10	=10	=10	=10	=10
8r	.	4cc 4a\	.	.	4cc/	4a\	Ma-	.
(8DD'/L	.	.	.	.	.	.	.	.
!	!	!LO:TX:t=P:problem: fing: 1 2	!	!	!	!	!	!
8FF#'/	.	4a 4f#/	2 1	.	4a/	4f#\	-ni	.
8AA'/J)	.	.	.	.	.	.	.	.
=11	=11	=11	=11	=11	=11	=11	=11	=11
4D\	.	(8.bL 8.g/	3 5	.	8.b/	8.g\	prze-	.
.	.	16aJk 16d/)	.	.	16a/	16d\	-zna-	.
4r	.	(8gL 8B'/	.	.	8g/	8B\	-czo-	.
.	.	8bJ 8g'/)	1 3	.	8b/	8g\	-nyś	.
=12	=12	=12	=12	=12	=12	=12	=12	=12
8r	.	4dd 4b\	.	.	4dd/	4b\	dla	.
(8GG'/L	.	.	.	.	.	.	.	.
8BB'/	.	4b 4g/	.	.	4b/	4g\	niej,	.
8D'/J)	.	.	.	.	.	.	.	.
!!LO:LB:g=original
=13	=13	=13	=13	=13	=13	=13	=13	=13
4G\	.	(8.ddL 8.b\	.	.	8.dd/	8.b\	cze-	.
.	.	16ccJk 16a\)	.	.	16cc/	16a\	-go	.
4r	.	(8bL 8g'/	.	.	8b/	8g\	wię-	.
.	.	8bJ 8g'/)	.	.	8b/	8g\	-cej	.
=14	=14	=14	=14	=14	=14	=14	=14	=14
(4D\	.	4cc 4a\	.	.	4cc/	4a\	chcesz?	.
8DD/)	.	4r	.	.	4r	4ryy	.	.
8r	.	.	.	.	.	.	.	.
=15	=15	=15	=15	=15	=15	=15	=15	=15
8GG/	.	(8bL 8g'/	3 5	.	8b/	8g\	Ciesz	.
8r	.	8gJ 8B'/)	1 4	.	8g/	8B\	się	.
8D\	.	(8aL 8c'/	.	.	8a/	8c\	kwiat-	.
8r	.	8f#J 8d'/)	.	.	8f#/	8d\	-ku,	.
=16	=16	=16	=16	=16	=16	=16	=16	=16
8r	.	4g 4B/	.	.	4g/	4B\	ciesz!	.
(8G'/L	.	.	.	.	.	.	.	.
8GG'/J)	.	4r	.	.	4r	4ryy	.	.
8r	.	.	.	.	.	.	.	.
*	*	*	*	*	*v	*v	*	*
==	==	==	==	==	==	==	==
*-	*-	*-	*-	*-	*-	*-	*-
!!!system-decoration: s1{(s2,s3)}
!!!RDF**kern: > = above
!!!RDF**kern: < = below
!!!RDF**kern: N = linked
!!!ENC: Andrzej Gręziak
!!!EED: Katarzyna Serwa
!!!END: 2025-03-26
!!!EEV: 2025-03-27
